X: 1
T: It Is Not Day, No, Nor Morning
T: Poc Air Buille,
T: Mad Buckgoat, The
B: Old Irish Folk Music and Songs, Joyce, P.W., 1965. #693
S: irtrad-l,T McClain, 5/98
M: 2/4
L: 1/16
R: Air
K:G
|d2de f2ed|g2g2d2B2|dded|e2g2a2g2|b2a2g2d2|=f2f2e2d2|gedB A2G2|A2GF G2D2|.E2.G2 G4|.A2.A2 A4|GEG2 G4|BAGE G2D2|.E2.G2 G4|.A2.G2.A> g|gedb d2B2|A2GA B2G2||
